src/widgets/ProductCard/assets/icons/star.svg

<svg width="40" height="37" viewBox="0 0 40 37" fill="none" xmlns="http://www.w3.org/2000/svg">
<path id="Star 1" d="M20 1.61804L24.0148 13.9742L24.127 14.3197H24.4903H37.4823L26.9715 21.9562L26.6776 22.1697L26.7899 22.5152L30.8046 34.8713L20.2939 27.2348L20 27.0213L19.7061 27.2348L9.19535 34.8713L13.2101 22.5152L13.3224 22.1697L13.0285 21.9562L2.51771 14.3197H15.5097H15.873L15.9852 13.9742L20 1.61804Z" fill="white" stroke="#FF9900"/>
</svg>

<svg xmlns="http://www.w3.org/2000/svg" width="40" height="37" fill="none"><path fill="#fff" stroke="#000" d="m20 1.618 4.015 12.356.112.346h13.355l-10.51 7.636-.294.214.112.345 4.015 12.356-10.511-7.636L20 27.02l-.294.214-10.51 7.636 4.014-12.356.112-.345-.293-.214L2.518 14.32h13.355l.112-.346L20 1.618Z"/></svg>
